X:82
T:Le voyage d'Eric St-Pierre
C:Eric St-Pierre
S:Fanny Montpetit et Marie-Pierre Lecault
R:reel
M:4/4
L:1/16
K:D
AB(3cBA e>e AB(3cBA g>g | agea gedg edBA GABG |
AB(3cBA e>e AB(3cBA g>g | agea gedB GABG A4 ::
A2EA ABcA BAGB AGEF | G2DG GFG2 DGGF G2FG |
A2EA ABcA BAGB AGEF | Gbag efge dBGA BAA2 ::
AB(3cBA dcBc AB(3cBA FAEA |123 AB(3cBA dcBf edca gedc :|4 AB(3cBA dcBf edca gecd |:
eaae a>a abag e2f2 | g>g fgba gage edcd |
eaae a>a abag e2f2 | gbag efge dBGA BAA2 :|
